X:0171
T:Quick Step. Fencibles
M:2/4
L:1/8
Q:1/4=84
P:ABA
% Aird uses a da capo and doesn't clearly mark
% where the A part stops second time round
I: (1) :| (2) |: || DC
Z:Jack Campin * www.campin.me.uk * 2009
K:G
P:A
G2  B>G|A2 FD |G2 B>G|   c4     |
B2  d>B|e2 c>A|Bd DF |[1 G2 G,2:|\
                      [2 G2    ||
P:B
D/(E//F//G//A//B//^c//)|:d2 (D/E//F//G//A//B//^c//)|d3F|GEA,G|F2
D/`E//F//G//A//B//^c// | d2  D/E//F//G//A//B//^c// |d3F|GEA,G|F4:|

% The next few tunes are mostly marches of the trade guilds
% of Edinburgh; 172, 178, and maybe 176 could well date back
% to the 15th century when they were set up, and are among
% the oldest tunes in Scottish tradition.

